X: 13
T: Rakes Of Mallow, The
Z: Gabby McKinley
S: https://thesession.org/tunes/85#setting49814
R: polka
M: 2/4
L: 1/8
K: Gmaj
"G"GB GB |GB c/B/A/G/|"D"FA FA |FA d2|
"G"GB GB |GB d>B|"C"c/B/A/G/ "D"F/G/A/c/ |"G"BG G2||
gf/e/ dc |"Em"Bc d2|"C"gf/e/ dc |"D"Bc A2|
"G"gf/e/ dc |"Em"Bc d2|"C"c/B/A/G/ "D"F/G/A/c/ |"G"BG G2||

